svg/single/visa.svg

<svg enable-background="new 0 0 750 471" height="471" viewBox="0 0 750 471" width="750" xmlns="http://www.w3.org/2000/svg"><g fill="#0e4595"><path d="m278.198 334.228 33.36-195.763h53.358l-33.384 195.763z"/><path d="m524.307 142.687c-10.57-3.966-27.135-8.222-47.822-8.222-52.725 0-89.863 26.551-90.18 64.604-.297 28.129 26.514 43.821 46.754 53.185 20.77 9.597 27.752 15.716 27.652 24.283-.133 13.123-16.586 19.116-31.924 19.116-21.355 0-32.701-2.967-50.225-10.274l-6.877-3.112-7.488 43.823c12.463 5.466 35.508 10.199 59.438 10.445 56.09 0 92.502-26.248 92.916-66.884.199-22.27-14.016-39.216-44.801-53.188-18.65-9.056-30.072-15.099-29.951-24.269 0-8.137 9.668-16.838 30.559-16.838 17.447-.271 30.088 3.534 39.936 7.5l4.781 2.259z"/><path d="m661.615 138.464h-41.23c-12.773 0-22.332 3.486-27.941 16.234l-79.244 179.402h56.031s9.16-24.121 11.232-29.418c6.123 0 60.555.084 68.336.084 1.596 6.854 6.492 29.334 6.492 29.334h49.512zm-65.417 126.408c4.414-11.279 21.26-54.724 21.26-54.724-.314.521 4.381-11.334 7.074-18.684l3.607 16.878s10.217 46.729 12.352 56.527h-44.293z"/><path d="m45.878906 138.46484-.68164 4.07227c21.092962 5.106 39.932007 12.49619 56.425784 21.68945l47.3457 169.6875 56.45508-.0625 84.0039-195.38672h-56.52539l-52.23828 133.4961-5.56445-27.13086c-.26068-.83823-.54407-1.67793-.83399-2.51953l-18.16015-87.31836c-3.229-12.396-12.59655-16.09535-24.18555-16.52735z"/></g></svg>

<?xml version="1.0" encoding="UTF-8" standalone="no"?>
<!-- Generator: Adobe Illustrator 16.0.0, SVG Export Plug-In . SVG Version: 6.00 Build 0)  -->

<svg
   xmlns:sketch="http://www.bohemiancoding.com/sketch/ns"
   xmlns:dc="http://purl.org/dc/elements/1.1/"
   xmlns:cc="http://creativecommons.org/ns#"
   xmlns:rdf="http://www.w3.org/1999/02/22-rdf-syntax-ns#"
   xmlns:svg="http://www.w3.org/2000/svg"
   xmlns="http://www.w3.org/2000/svg"
   xmlns:sodipodi="http://sodipodi.sourceforge.net/DTD/sodipodi-0.dtd"
   xmlns:inkscape="http://www.inkscape.org/namespaces/inkscape"
   version="1.1"
   id="Layer_1"
   x="0px"
   y="0px"
   width="750px"
   height="471px"
   viewBox="0 0 750 471"
   enable-background="new 0 0 750 471"
   xml:space="preserve"
   sodipodi:docname="visa.svg"
   inkscape:version="0.92.2 5c3e80d, 2017-08-06"><metadata
     id="metadata4882"><rdf:RDF><cc:Work
         rdf:about=""><dc:format>image/svg+xml</dc:format><dc:type
           rdf:resource="http://purl.org/dc/dcmitype/StillImage" /></cc:Work></rdf:RDF></metadata><defs
     id="defs4880" /><sodipodi:namedview
     pagecolor="#ffffff"
     bordercolor="#666666"
     borderopacity="1"
     objecttolerance="10"
     gridtolerance="10"
     guidetolerance="10"
     inkscape:pageopacity="0"
     inkscape:pageshadow="2"
     inkscape:window-width="1428"
     inkscape:window-height="869"
     id="namedview4878"
     showgrid="false"
     inkscape:zoom="0.384"
     inkscape:cx="83.333333"
     inkscape:cy="235.5"
     inkscape:window-x="164"
     inkscape:window-y="478"
     inkscape:window-maximized="0"
     inkscape:current-layer="Layer_1" /><title
     id="title4867">Slice 1</title><desc
     id="desc4869">Created with Sketch.</desc><g
     id="visa"
     sketch:type="MSLayerGroup"><path
       id="Shape"
       sketch:type="MSShapeGroup"
       fill="#0E4595"
       d="M278.198,334.228l33.36-195.763h53.358l-33.384,195.763H278.198   L278.198,334.228z" /><path
       id="path13"
       sketch:type="MSShapeGroup"
       fill="#0E4595"
       d="M524.307,142.687c-10.57-3.966-27.135-8.222-47.822-8.222   c-52.725,0-89.863,26.551-90.18,64.604c-0.297,28.129,26.514,43.821,46.754,53.185c20.77,9.597,27.752,15.716,27.652,24.283   c-0.133,13.123-16.586,19.116-31.924,19.116c-21.355,0-32.701-2.967-50.225-10.274l-6.877-3.112l-7.488,43.823   c12.463,5.466,35.508,10.199,59.438,10.445c56.09,0,92.502-26.248,92.916-66.884c0.199-22.27-14.016-39.216-44.801-53.188   c-18.65-9.056-30.072-15.099-29.951-24.269c0-8.137,9.668-16.838,30.559-16.838c17.447-0.271,30.088,3.534,39.936,7.5l4.781,2.259   L524.307,142.687" /><path
       id="Path"
       sketch:type="MSShapeGroup"
       fill="#0E4595"
       d="M661.615,138.464h-41.23c-12.773,0-22.332,3.486-27.941,16.234   l-79.244,179.402h56.031c0,0,9.16-24.121,11.232-29.418c6.123,0,60.555,0.084,68.336,0.084c1.596,6.854,6.492,29.334,6.492,29.334   h49.512L661.615,138.464L661.615,138.464z M596.198,264.872c4.414-11.279,21.26-54.724,21.26-54.724   c-0.314,0.521,4.381-11.334,7.074-18.684l3.607,16.878c0,0,10.217,46.729,12.352,56.527h-44.293V264.872L596.198,264.872z" /><path
       d="M 45.878906 138.46484 L 45.197266 142.53711 C 66.290228 147.64311 85.129273 155.0333 101.62305 164.22656 L 148.96875 333.91406 L 205.42383 333.85156 L 289.42773 138.46484 L 232.90234 138.46484 L 180.66406 271.96094 L 175.09961 244.83008 C 174.83893 243.99185 174.55554 243.15215 174.26562 242.31055 L 156.10547 154.99219 C 152.87647 142.59619 143.50892 138.89684 131.91992 138.46484 L 45.878906 138.46484 z "
       id="path16"
       style="fill:#0e4595;fill-opacity:1" /></g></svg>
